X:608
T: Gechang yingxong liuhulan
N: C2125
O: China,Shanxi Wenshui
S: I, 310, 2)]
N: Han
R: Xiaodiao, Kulingding]
M: 2/4
L: 1/16
K: Ab
e2e2B2c2 | B6c2 | e2f2e2B2 | A4G2F2 |
e2e2B2c2 | B2A2G2F2 | B2c2B2F2 | E8 |
B2c2B4 | B2f2e2c2 | e2BcB2E2 | A8 |
e2e2B2c2 | B2A2G2F2 | B2A2G2F2 | E8 |
B2c2B2E2 | A2G2F2E2 | e2e2B2c2 | B2A2G2F2 | B3AG2F2 | E8

@@@ Tune index: 7163
